X: 25
T:Joan O'Neills #2
R:Polka
Z:added by Alf 
M:2/4
L:1/8
K:Bm
A/2|B>A B>A|F/2G/2A D>A|B>A B>A|B/2c/2d ed|\
B>A B>A|F/2G/2A DE|FD AF|E2 E3/2:|
A/|B/c/d e>f|ed B>A|B/2c/2d e>f|ed B>c|\
d>e dB|AF DE|FD AF|E2 E3/2:|
